X:1
T:Title
%%score { 1 | 2 }
L:1/8
M:4/4
K:F
V:1 treble nm="Grand Piano"
V:2 bass 
V:1
 z4 z2[Q:1/4=100] F2 | A2 c2 c2 dc | A2 A2 G2 F2 | [EG]2 [EG][EG] [Ec]2 [EG]2 |[M:3/4] A6 | %5
[M:1/4] FG |[M:4/4] A2 c2 c2 dc | A2 A2 G2 F2 | [EG]2 [EG][EG] A2 =B2 |[M:3/4] [Ec]6 | %10
[M:1/4] [Ec]2 |[M:4/4] c2 A2 d2 A2 | [Ac]2 [GB]2 [EG]2 [EG][FA] | [GB]2 [GB]2 [Be][Be] [EBd]2 | %14
[M:3/4] [Ac]6 |[M:1/4] [Ac][Ac] |[M:4/4] [Af]2 [Af]2 cc c2 | [Fe]2 [Fd]2 [DFG][DFG] [Fd]2 | %18
 [Fc]2 FF [FA]2 G2 |[M:3/4] F6 |] %20
V:2
 z4 z2 [F,A,]2 | [F,CF]2 [F,A,F]2 [F,A,F]2 [F,B,F][F,A,F] | [F,CF]2 [F,CF]2 [F,B,C]2 [F,A,C]2 | %3
 [C,C]2 [C,C][C,C] [C,G,]2 [C,C]2 |[M:3/4] [F,CF]6 |[M:1/4] [F,A,][F,B,F] | %6
[M:4/4] [F,CF]2 [F,A,F]2 [F,A,F]2 [F,B,F][F,A,F] | [F,CF]2 [F,CF]2 [F,B,F]2 [F,A,]2 | %8
 [C,C]2 [C,C][C,C][K:treble] [F,CF]2 [G,F]2 |[M:3/4][K:bass] [C,G,]6 |[M:1/4] [C,B,]2 | %11
[M:4/4] [F,A,F]2 [F,CF]2 [F,A,F]2 [F,CF]2 | [C,C]2 [C,C]2 [C,C]2 [C,C][C,C] | %13
 [C,C]2 [C,C]2 [C,C][C,C] C,2 |[M:3/4] [F,F]6 |[M:1/4] [F,F][F,F] | %16
[M:4/4] [F,C]2 [F,C]2 [F,A,F][F,A,F] [F,A,F]2 | [B,,B,]2 [B,,B,]2 B,,B,, [B,,B,]2 | %18
 [C,A,]2 [C,A,][C,A,] [C,C]2 [C,B,C]2 |[M:3/4] [F,A,C]6 |] %20

